static/assets/images/icons/click-1.svg

<svg width="256" height="256" viewBox="0 0 256 256" fill="none" xmlns="http://www.w3.org/2000/svg">
<path d="M228.669 64.9289C229.266 66.9262 229.049 69.078 228.065 70.9108C227.08 72.7436 225.41 74.1073 223.421 74.702L198.421 82.1752C196.432 82.7698 194.287 82.5466 192.458 81.5547C190.63 80.5628 189.267 78.8835 188.67 76.8861C188.073 74.8887 188.29 72.7369 189.274 70.9041C190.259 69.0713 191.929 67.7076 193.918 67.113L218.918 59.6397C220.907 59.0451 223.052 59.2683 224.881 60.2602C226.71 61.2521 228.072 62.9315 228.669 64.9289ZM194.621 22.8195C196.448 23.8117 197.809 25.4901 198.406 27.4858C199.002 29.4816 198.785 31.6315 197.803 33.4635L185.556 56.2673C185.091 57.2125 184.44 58.0535 183.643 58.7402C182.846 59.4268 181.919 59.945 180.918 60.2639C179.916 60.5827 178.86 60.6957 177.813 60.5961C176.766 60.4965 175.749 60.1863 174.823 59.6841C173.897 59.1819 173.081 58.4978 172.424 57.6728C171.766 56.8478 171.28 55.8988 170.996 54.8822C170.711 53.8657 170.634 52.8026 170.768 51.7562C170.901 50.7099 171.244 49.7018 171.775 48.792L184.021 25.9882C185.006 24.1574 186.675 22.7954 188.663 22.2013C190.65 21.6072 192.793 21.8295 194.621 22.8195ZM223.318 118.816C222.333 120.647 220.664 122.009 218.676 122.603C216.689 123.197 214.546 122.975 212.718 121.985L189.965 109.643C189.022 109.174 188.182 108.519 187.496 107.718C186.81 106.917 186.292 105.986 185.972 104.98C185.652 103.974 185.537 102.914 185.634 101.863C185.73 100.813 186.037 99.7933 186.536 98.8652C187.034 97.9372 187.714 97.1198 188.534 96.4619C189.355 95.8039 190.3 95.3189 191.312 95.0357C192.325 94.7525 193.384 94.677 194.427 94.8136C195.47 94.9502 196.475 95.2961 197.383 95.8308L220.136 108.172C221.963 109.164 223.324 110.843 223.92 112.838C224.517 114.834 224.3 116.984 223.318 118.816ZM140.908 17.3266C142.897 16.732 145.042 16.9552 146.871 17.9471C148.7 18.939 150.062 20.6184 150.659 22.6158L158.164 47.7195C158.761 49.7169 158.543 51.8686 157.559 53.7015C156.575 55.5343 154.904 56.898 152.915 57.4926C150.926 58.0872 148.781 57.864 146.953 56.8721C145.124 55.8802 143.761 54.2008 143.164 52.2034L135.66 27.0997C135.062 25.1024 135.28 22.9506 136.264 21.1178C137.249 19.285 138.919 17.9213 140.908 17.3266ZM151.549 79.7787C162.819 76.4097 172.867 87.8671 168.093 98.6467L120.972 205.286C115.903 216.756 99.4384 216.011 95.3553 204.138L82.2987 166.036C80.899 161.937 77.8943 158.591 73.9959 156.737L36.9296 139.223C25.4773 133.819 26.7096 117.097 38.8195 113.477L151.549 79.7787Z" fill="black"/>
</svg>

<svg xmlns="http://www.w3.org/2000/svg" fill="none" viewBox="0 0 256 256"><path fill="#000" d="M228.669 64.929a7.88 7.88 0 0 1-.604 5.982 7.8 7.8 0 0 1-4.644 3.791l-25 7.473a7.8 7.8 0 0 1-5.963-.62 7.88 7.88 0 0 1-3.788-4.669 7.88 7.88 0 0 1 .604-5.982 7.8 7.8 0 0 1 4.644-3.791l25-7.473a7.8 7.8 0 0 1 5.963.62 7.88 7.88 0 0 1 3.788 4.669m-34.048-42.11a7.88 7.88 0 0 1 3.182 10.645l-12.247 22.803a7.82 7.82 0 0 1-4.638 3.997 7.8 7.8 0 0 1-6.095-.58 7.87 7.87 0 0 1-4.055-7.928 7.8 7.8 0 0 1 1.007-2.964l12.246-22.804a7.8 7.8 0 0 1 4.642-3.787 7.8 7.8 0 0 1 5.958.619m28.697 95.997a7.8 7.8 0 0 1-4.642 3.787 7.8 7.8 0 0 1-5.958-.618l-22.753-12.342a7.86 7.86 0 0 1-3.993-4.663 7.9 7.9 0 0 1 .564-6.115 7.806 7.806 0 0 1 10.847-3.034l22.753 12.341a7.87 7.87 0 0 1 3.784 4.666 7.88 7.88 0 0 1-.602 5.978m-82.41-101.49a7.8 7.8 0 0 1 5.963.621 7.88 7.88 0 0 1 3.788 4.669l7.505 25.103a7.88 7.88 0 0 1-.605 5.983 7.8 7.8 0 0 1-4.644 3.79 7.8 7.8 0 0 1-5.962-.62 7.88 7.88 0 0 1-3.789-4.669L135.66 27.1a7.87 7.87 0 0 1 .604-5.982 7.8 7.8 0 0 1 4.644-3.791m10.641 62.453c11.27-3.37 21.318 8.088 16.544 18.868l-47.121 106.639c-5.069 11.47-21.534 10.725-25.617-1.148L82.3 166.036a16.05 16.05 0 0 0-8.303-9.299L36.93 139.223c-11.453-5.404-10.22-22.126 1.89-25.746z"/></svg>
